extension/icons/icon.svg

<svg xmlns="http://www.w3.org/2000/svg" width="128" height="128" viewBox="0 0 1844 1705">
  <g fill="#570006">
    <path d="M61.91 542.56L4.3 542.7a.46.46 0 01-.46-.46L2.5 4.49a1.28 1.25-23.9 013.62Q3.69 2.71 3.73 1.26A.61.61 0 014.34.67l1834.59 4.36a.62.62 0 01.62.62l1.35 541.79a.85.85 0 01-.85.85l-56.97.15a.74.74 0 01-.74-.74l-1.2-482.51a.69.69 0 00-.69-.69l-1718.52-4.09a.65.64 90 00-.64.65l1.2 480.97a.53.53 0 01-.53.53z"/>
    <path d="M699.15 732.03q.01-1.22-.38-1.79Q637.37 640.86 576.64 552.48a.42.41 28 00-.76.23v259.9a1.24 1.24 0 01-1.24 1.24H455.27a.64.63 0 01-.64-.63V196.3a.9.89 0 01.9-.89h4.81a1.61 1.6-18.2 011.29.65q84.6 116.87 238.15 328.99.73 1.01 1.53 1.19.71.16.82.95.04.24.7 1.17 22.04 30.76 45.01 61.97a.36.35 44.3 00.58 0L1034.45 195.96a1.34 1.34 0 011.09-.56h4.95a.8.8 0 01.8.8v617.2a.46.45 0 01-.46.45H920.83a.83.82 0 01-.83-.82q.24-105.9.46-259.27 0-.72-.41-1.59a.6.6 0 00-1.04-.09L748.95 800.38a.97.97 0 01-1.6 0q-17.07-24.64-46.35-66.9c-.37-.54-.71-.78-1.26-.81a.63.63 0 01-.59-.64z"/>
    <path d="M1422.83 797.53a.33.32-17.4 01-.27.51H1275.9a1.72 1.71 73.2 01-1.43-.77L1083.96 513.94a2.51 2.47 28.6 01-.42-1.38v-44.7a1.18 1.18 0 011.18-1.18q33.83.01 69.53.41c6.51.07 16.36-.19 23.28-1.76 53.22-12.05 79.61-73.6 45.85-118.5-11.9-15.83-30.59-27.49-50.1-30.41q-7.21-1.07-18.52-1.04-63.85.16-70.75-.01a.48.48 0 01-.47-.48V196.15a.57.57 0 01.57-.57q14.19.12 65.89-.17c11.18-.06 26.16.38 38.26 2.11 67.12 9.63 126.49 49.89 156.24 111.18 33.43 68.88 21.57 154.34-31.68 209.88q-25.52 26.62-60.24 39.68a.35.35 0 00-.16.53l170.41 238.74z"/>
    <path d="M727.29 1146.98q-.39 0-1.08-1.01-46.97-68.07-63.62-92.02a.3.3 0 00-.55.17l-.17 95.82a.95.95 0 01-.95.95l-44.1-.08a.56.55 77.4 01-.5-.32q-.15-.31-.15-.9.44-226.48.44-228.31c.01-1.77 2.36-2.55 3.4-1.13q17.51 23.94 107.05 148.08a.34.09 10.7 00.23.11q.05.01.1.01.04 0 .1-.01a.34.09-10.6 00.23-.11Q817.49 944.26 835.04 920.35c1.05-1.42 3.39-.63 3.4 1.14q0 1.83.01 228.31.0.59-.15.9a.56.55-77.3 01-.5.32l-44.1 0a.95.95 0 01-.95-.95l.01-95.82a.3.3 0 00-.55-.17q-16.69 23.91-63.79 91.9-.69 1-1.08 1z"/>
    <path d="M1146.26 919.88q.36 0 .67.17.28.17.44.5Q1200.95 1035.14 1254.52 1149.75q.24.5.22.78a.41.4 2.3 01-.41.37l-48.03.01a.92.91-11.8 01-.84-.54l-13.65-30.05a1.56 1.55-11.9 00-1.41-.91q-16.65-.07-44.11-.07-27.47 0-44.12.08a1.56 1.55 11.9 00-1.41.91l-13.64 30.06a.92.91 11.8 01-.84.54h-48.03a.41.4-2.3 01-.41-.37q-.02-.28.22-.78Q1091.6 1035.16 1145.15 920.55q.16-.33.44-.5.31-.17.67-.17zM1119.31 1079.84a.49.49 0 00.45.69h53.16a.49.49 0 00.45-.69l-26.58-58.13a.49.49 0 00-.9 0l-26.58 58.13z"/>
    <path d="M985.35 1023.91c29.24 3.87 47.71 32.74 46.58 60.86-1.28 32.08-21.96 58-53.78 64.61q-5.92 1.23-17.15 1.4-15.2.23-84.13-.02a.58.58 0 01-.58-.58V926.13a.44.44 0 01.44-.44q24.19-.17 61.79-.01 25.48.11 43.13 14.46 10.89 8.85 16.54 20.34c9.8 19.92 8.01 49.96-13 62.78a.36.36 0 00.16.65zM921.47 970.34l.14 42.22a.59.59 0 00.6.59l17.53-.06A21.94 21.65-.2 00961.6 991.36v-.1A21.94 21.65-.2 00939.58 969.69l-17.53.06a.59.59 0 00-.58.59zM921.31 1053.76l.46 52.32a.61.61 0 00.61.6l36.52-.32a29.09 26.43-.5 0028.86-26.68v-.68a29.09 26.43-.5 00-29.32-26.17l-36.52.31a.61.61 0 00-.61.62z"/>
    <path d="M1341.72 1109.17c18.92 0 37.06-14.15 40.46-32.94q1.2-6.62 1.17-16.23-.19-58.82.01-133.62a.76.75-89.6 01.75-.75h44.03a.77.77 0 01.77.77q.08 67.51 0 134.89-.03 16.03-1.53 23.85c-7.93 41.26-43.56 70.08-85.63 70.07-42.07-.01-77.7-28.82-85.62-70.08q-1.5-7.82-1.53-23.85-.08-67.38 0-134.89a.77.77 0 01.77-.77h44.03a.76.75 89.6 01.75.75q.17 74.8-.02 133.62-.03 9.61 1.17 16.23c3.39 18.78 21.54 32.94 40.45 32.94z"/>
    <path d="M492.67 1155.22c-42.06 0-77.69-28.81-85.62-70.07q-1.5-7.81-1.53-23.84-.09-67.37 0-134.87a.77.77 0 01.77-.77h44.02a.76.75 89.6 01.75.75q.19 74.79-.02 133.6-.03 9.61 1.17 16.23c3.39 18.78 21.54 32.93 40.45 32.93s29.72-14.15 33.12-32.93q1.2-6.63 1.17-16.23-.2-58.82.01-133.61a.76.75-89.6 01.75-.75h44.03a.77.77 0 01.77.77q.08 67.5 0 134.87-.03 16.03-1.53 23.84c-7.92 41.26-43.54 70.08-85.61 70.08z"/>
    <path d="M59.28 1181.63l1.14 458.07a.8.8 0 00.8.8l1722.74 4.1a.63.63 0 00.63-.63l-1.15-462.09a.77.76 90 01.76-.77l57.35-.15a.5.5 0 01.5.5l1.29 518.55a2.82 2.77-30.1 01-.39 1.42q-.61 1.03-.69 2-.07.97-1.06 1.88Q1832.39 1704.31 1785.25 1704.2 371.56 1700.82 6 1699.96c-3.89-.01-4.07-1.57-4.08-5.15q-.53-231.52-1.26-512.85a.85.85 0 01.85-.85l57.1-.15a.67.67 0 01.67.67z"/>
    <path d="M836.38 1371.04q.05 0 .1-.01a.34.09-10.6 00.23-.11Q926.48 1246.93 944.03 1223.02c1.05-1.42 3.39-.63 3.4 1.14q0 1.83.03 228.33.0.59-.15.9a.56.55-77.3 01-.5.32l-44.1 0a.95.95 0 01-.95-.95V1356.93a.3.3 0 00-.55-.17q-16.69 23.92-63.79 91.91-.69 1-1.08 1-.44 0-1.13-1.01-46.98-68.08-63.63-92.03a.3.3 0 00-.55.17l-.16 95.83a.95.95 0 01-.96.95l-44.1-.08a.56.55 77.4 01-.5-.32q-.15-.31-.14-.9.41-226.5.41-228.33c0-1.77 2.35-2.55 3.39-1.13q17.51 23.94 107.07 148.08a.34.09 10.7 00.23.11q.05.01.1.01z"/>
    <path d="M588.88 1368.4v-40.69a.77.76-90 01.76-.77h104.94a.62.61 86.3 01.61.54c3.83 30.25-1.32 62.17-18.78 87.02-39.73 56.54-124.85 55.87-171.95 9.83-24.51-23.96-37.27-57.66-34.84-92.23 2.01-28.58 14.8-55.35 35.11-75.67 29.48-29.49 73.37-41.14 113.48-28.83q29.36 9.01 51.14 30.54a.93.92-50.5 01.11 1.18l-24.69 36.06a.66.65-50 01-1 .09c-22.08-22.08-51.92-33.97-81.93-22.11-20.71 8.18-36.52 25.75-43.01 46.96-11.54 37.73 9.1 76.17 46.45 88.05 30.05 9.56 79.56 2.03 82.04-38.72a.66.66 0 00-.66-.71l-57.23 0a.55.54 0 01-.55-.54z"/>
    <path d="M1094.19 1325.94a.36.36 0 00.14.66c29.24 3.87 47.71 32.74 46.58 60.86-1.28 32.08-21.96 58-53.78 64.61q-5.92 1.23-17.15 1.4-15.2.23-84.13-.02a.58.58 0 01-.58-.58V1228.81a.44.44 0 01.44-.44q24.19-.17 61.79-.01 25.48.11 43.13 14.46 10.89 8.85 16.54 20.34c9.8 19.92 8.01 49.96-13 62.78zM1030.5 1273.19l.08 41.8a.82.82 0 00.82.82l17.17-.03a22.03 21.61-.1 0021.99-21.65v-.22a22.03 21.61-.1 00-22.07-21.57l-17.17.03a.82.82 0 00-.82.82zM1030.31 1356.48l.46 52.26a.65.65 0 00.65.64l36.41-.32a29.14 26.28-.5 0028.91-26.53v-1a29.14 26.28-.5 00-29.36-26.02l-36.41.31a.65.65 0 00-.66.66z"/>
    <path d="M1252.08 1318.42q22.75 0 39.58-.05.57-.01.94-.15a.53.52 79.4 00.33-.49V1228.75a.55.55 0 01.55-.55h43.66a1.08 1.08 0 011.08 1.07q.01.52.01 111.62t-.01 111.63a1.08 1.08 0 01-1.08 1.06h-43.66a.55.55 0 01-.55-.55v-88.98a.53.52-79.4 00-.33-.49q-.37-.14-.94-.14-16.83-.06-39.58-.06t-39.57.06q-.57 0-.94.14a.53.52 79.4 00-.33.49v88.98a.55.55 0 01-.55.55h-43.66a1.08 1.08 0 01-1.08-1.06q-.01-.52-.02-111.63.01-111.1.02-111.62a1.08 1.08 0 011.08-1.07h43.66a.55.55 0 01.55.55v88.98a.53.52-79.4 00.33.49q.37.14.94.15 16.83.05 39.57.05z"/>
  </g>
</svg>

<svg xmlns="http://www.w3.org/2000/svg" width="128" height="128" viewBox="0 0 1844 1705">
  <g fill="#570006">
    <path d="M 61.91 542.56 L 4.30 542.70 A 0.46 0.46 0.0 0 1 3.84 542.24 L 2.50 4.49 A 1.28 1.25 -23.9 0 1 2.85 3.62 Q 3.69 2.71 3.73 1.26 A 0.61 0.61 0.0 0 1 4.34 0.67 L 1838.93 5.03 A 0.62 0.62 0.0 0 1 1839.55 5.65 L 1840.90 547.44 A 0.85 0.85 0.0 0 1 1840.05 548.29 L 1783.03 548.44 A 0.74 0.74 0.0 0 1 1782.29 547.70 L 1781.09 65.19 A 0.69 0.69 0.0 0 0 1780.40 64.50 L 61.88 60.41 A 0.65 0.64 90.0 0 0 61.24 61.06 L 62.44 542.03 A 0.53 0.53 0.0 0 1 61.91 542.56 Z"/>
    <path d="M 699.15 732.03 Q 699.16 730.81 698.77 730.24 Q 637.37 640.86 576.64 552.48 A 0.42 0.41 28.0 0 0 575.88 552.71 L 575.88 812.61 A 1.24 1.24 0.0 0 1 574.64 813.85 L 455.27 813.85 A 0.64 0.63 0.0 0 1 454.63 813.22 L 454.63 196.30 A 0.90 0.89 -0.0 0 1 455.53 195.41 L 460.34 195.41 A 1.61 1.60 -18.2 0 1 461.63 196.06 Q 546.23 312.93 699.78 525.05 Q 700.51 526.06 701.31 526.24 Q 702.02 526.40 702.13 527.19 Q 702.17 527.43 702.83 528.36 Q 724.87 559.12 747.84 590.33 A 0.36 0.35 44.3 0 0 748.42 590.33 L 1034.45 195.96 A 1.34 1.34 0.0 0 1 1035.54 195.40 L 1040.49 195.40 A 0.80 0.80 0.0 0 1 1041.29 196.20 L 1041.29 813.40 A 0.46 0.45 0.0 0 1 1040.83 813.85 L 920.83 813.85 A 0.83 0.82 0.0 0 1 920.00 813.03 Q 920.24 707.13 920.46 553.76 Q 920.46 553.04 920.05 552.17 A 0.60 0.60 0.0 0 0 919.01 552.08 L 748.95 800.38 A 0.97 0.97 0.0 0 1 747.35 800.38 Q 730.28 775.74 701.00 733.48 C 700.63 732.94 700.29 732.70 699.74 732.67 A 0.63 0.63 0.0 0 1 699.15 732.03 Z"/>
    <path d="M 1422.83 797.53 A 0.33 0.32 -17.4 0 1 1422.56 798.04 L 1275.90 798.04 A 1.72 1.71 73.2 0 1 1274.47 797.27 L 1083.96 513.94 A 2.51 2.47 28.6 0 1 1083.54 512.56 L 1083.54 467.86 A 1.18 1.18 0.0 0 1 1084.72 466.68 Q 1118.55 466.69 1154.25 467.09 C 1160.76 467.16 1170.61 466.90 1177.53 465.33 C 1230.75 453.28 1257.14 391.73 1223.38 346.83 C 1211.48 331.00 1192.79 319.34 1173.28 316.42 Q 1166.07 315.35 1154.76 315.38 Q 1090.91 315.54 1084.01 315.37 A 0.48 0.48 0.0 0 1 1083.54 314.89 L 1083.54 196.15 A 0.57 0.57 0.0 0 1 1084.11 195.58 Q 1098.30 195.70 1150.00 195.41 C 1161.18 195.35 1176.16 195.79 1188.26 197.52 C 1255.38 207.15 1314.75 247.41 1344.50 308.70 C 1377.93 377.58 1366.07 463.04 1312.82 518.58 Q 1287.30 545.20 1252.58 558.26 A 0.35 0.35 0.0 0 0 1252.42 558.79 L 1422.83 797.53 Z"/>
    <path d="M 727.29 1146.98 Q 726.90 1146.98 726.21 1145.97 Q 679.24 1077.90 662.59 1053.95 A 0.30 0.30 0.0 0 0 662.04 1054.12 L 661.87 1149.94 A 0.95 0.95 0.0 0 1 660.92 1150.89 L 616.82 1150.81 A 0.56 0.55 77.4 0 1 616.32 1150.49 Q 616.17 1150.18 616.17 1149.59 Q 616.61 923.11 616.61 921.28 C 616.62 919.51 618.97 918.73 620.01 920.15 Q 637.52 944.09 727.06 1068.23 A 0.34 0.09 10.7 0 0 727.29 1068.34 Q 727.34 1068.35 727.39 1068.35 Q 727.43 1068.35 727.49 1068.34 A 0.34 0.09 -10.6 0 0 727.72 1068.23 Q 817.49 944.26 835.04 920.35 C 836.09 918.93 838.43 919.72 838.44 921.49 Q 838.44 923.32 838.45 1149.80 Q 838.45 1150.39 838.30 1150.70 A 0.56 0.55 -77.3 0 1 837.80 1151.02 L 793.70 1151.02 A 0.95 0.95 0.0 0 1 792.75 1150.07 L 792.76 1054.25 A 0.30 0.30 0.0 0 0 792.21 1054.08 Q 775.52 1077.99 728.42 1145.98 Q 727.73 1146.98 727.29 1146.98 Z"/>
    <path d="M 1146.26 919.88 Q 1146.62 919.88 1146.93 920.05 Q 1147.21 920.22 1147.37 920.55 Q 1200.95 1035.14 1254.52 1149.75 Q 1254.76 1150.25 1254.74 1150.53 A 0.41 0.40 2.3 0 1 1254.33 1150.90 L 1206.30 1150.91 A 0.92 0.91 -11.8 0 1 1205.46 1150.37 L 1191.81 1120.32 A 1.56 1.55 -11.9 0 0 1190.40 1119.41 Q 1173.75 1119.34 1146.29 1119.34 Q 1118.82 1119.34 1102.17 1119.42 A 1.56 1.55 11.9 0 0 1100.76 1120.33 L 1087.12 1150.39 A 0.92 0.91 11.8 0 1 1086.28 1150.93 L 1038.25 1150.93 A 0.41 0.40 -2.3 0 1 1037.84 1150.56 Q 1037.82 1150.28 1038.06 1149.78 Q 1091.60 1035.16 1145.15 920.55 Q 1145.31 920.22 1145.59 920.05 Q 1145.90 919.88 1146.26 919.88 Z M 1119.31 1079.84 A 0.49 0.49 0.0 0 0 1119.76 1080.53 L 1172.92 1080.53 A 0.49 0.49 0.0 0 0 1173.37 1079.84 L 1146.79 1021.71 A 0.49 0.49 0.0 0 0 1145.89 1021.71 L 1119.31 1079.84 Z"/>
    <path d="M 985.35 1023.91 C 1014.59 1027.78 1033.06 1056.65 1031.93 1084.77 C 1030.65 1116.85 1009.97 1142.77 978.15 1149.38 Q 972.23 1150.61 961.00 1150.78 Q 945.80 1151.01 876.87 1150.76 A 0.58 0.58 0.0 0 1 876.29 1150.18 L 876.29 926.13 A 0.44 0.44 0.0 0 1 876.73 925.69 Q 900.92 925.52 938.52 925.68 Q 964.00 925.79 981.65 940.14 Q 992.54 948.99 998.19 960.48 C 1007.99 980.40 1006.20 1010.43 985.21 1023.25 A 0.36 0.36 0.0 0 0 985.35 1023.91 Z M 921.47 970.34 L 921.61 1012.56 A 0.59 0.59 0.0 0 0 922.21 1013.15 L 939.74 1013.09 A 21.94 21.65 -0.2 0 0 961.60 991.36 L 961.60 991.26 A 21.94 21.65 -0.2 0 0 939.58 969.69 L 922.05 969.75 A 0.59 0.59 0.0 0 0 921.47 970.34 Z M 921.31 1053.76 L 921.77 1106.08 A 0.61 0.61 0.0 0 0 922.38 1106.68 L 958.90 1106.36 A 29.09 26.43 -0.5 0 0 987.76 1079.68 L 987.76 1079.00 A 29.09 26.43 -0.5 0 0 958.44 1052.83 L 921.92 1053.14 A 0.61 0.61 0.0 0 0 921.31 1053.76 Z"/>
    <path d="M 1341.72 1109.17 C 1360.64 1109.17 1378.78 1095.02 1382.18 1076.23 Q 1383.38 1069.61 1383.35 1060.00 Q 1383.16 1001.18 1383.34 926.38 A 0.76 0.75 -89.6 0 1 1384.09 925.63 L 1428.12 925.63 A 0.77 0.77 0.0 0 1 1428.89 926.40 Q 1428.97 993.91 1428.88 1061.29 Q 1428.85 1077.32 1427.35 1085.14 C 1419.42 1126.40 1383.79 1155.22 1341.72 1155.21 C 1299.65 1155.21 1264.02 1126.39 1256.10 1085.13 Q 1254.60 1077.31 1254.57 1061.28 Q 1254.49 993.90 1254.57 926.39 A 0.77 0.77 0.0 0 1 1255.34 925.62 L 1299.37 925.63 A 0.76 0.75 89.6 0 1 1300.12 926.38 Q 1300.29 1001.18 1300.10 1060.00 Q 1300.07 1069.61 1301.27 1076.23 C 1304.66 1095.01 1322.81 1109.17 1341.72 1109.17 Z"/>
    <path d="M 492.67 1155.22 C 450.61 1155.22 414.98 1126.41 407.05 1085.15 Q 405.55 1077.34 405.52 1061.31 Q 405.43 993.94 405.51 926.44 A 0.77 0.77 0.0 0 1 406.28 925.67 L 450.30 925.67 A 0.76 0.75 89.6 0 1 451.05 926.42 Q 451.24 1001.21 451.05 1060.02 Q 451.02 1069.63 452.22 1076.25 C 455.61 1095.03 473.76 1109.18 492.67 1109.18 C 511.58 1109.18 529.72 1095.03 533.12 1076.25 Q 534.32 1069.62 534.29 1060.02 Q 534.09 1001.20 534.26 926.41 A 0.76 0.75 -89.6 0 1 535.01 925.66 L 579.04 925.66 A 0.77 0.77 0.0 0 1 579.81 926.43 Q 579.89 993.93 579.81 1061.30 Q 579.78 1077.33 578.28 1085.14 C 570.36 1126.40 534.74 1155.22 492.67 1155.22 Z"/>
    <path d="M 59.28 1181.63 L 60.42 1639.70 A 0.80 0.80 0.0 0 0 61.22 1640.50 L 1783.96 1644.60 A 0.63 0.63 0.0 0 0 1784.59 1643.97 L 1783.44 1181.88 A 0.77 0.76 90.0 0 1 1784.20 1181.11 L 1841.55 1180.96 A 0.50 0.50 0.0 0 1 1842.05 1181.46 L 1843.34 1700.01 A 2.82 2.77 -30.1 0 1 1842.95 1701.43 Q 1842.34 1702.46 1842.26 1703.43 A 0.99 0.99 0.0 0 1 1841.27 1704.34 Q 1832.39 1704.31 1785.25 1704.20 Q 371.56 1700.82 6.00 1699.96 C 2.11 1699.95 1.93 1698.39 1.92 1694.81 Q 1.39 1463.29 0.66 1181.96 A 0.85 0.85 0.0 0 1 1.51 1181.11 L 58.61 1180.96 A 0.67 0.67 0.0 0 1 59.28 1181.63 Z"/>
    <path d="M 836.38 1371.04 Q 836.43 1371.04 836.48 1371.03 A 0.34 0.09 -10.6 0 0 836.71 1370.92 Q 926.48 1246.93 944.03 1223.02 C 945.08 1221.60 947.42 1222.39 947.43 1224.16 Q 947.43 1225.99 947.46 1452.49 Q 947.46 1453.08 947.31 1453.39 A 0.56 0.55 -77.3 0 1 946.81 1453.71 L 902.71 1453.71 A 0.95 0.95 0.0 0 1 901.76 1452.76 L 901.76 1356.93 A 0.30 0.30 0.0 0 0 901.21 1356.76 Q 884.52 1380.68 837.42 1448.67 Q 836.73 1449.68 836.34 1449.68 Q 835.90 1449.68 835.21 1448.67 Q 788.23 1380.60 771.58 1356.65 A 0.30 0.30 0.0 0 0 771.03 1356.82 L 770.87 1452.65 A 0.95 0.95 0.0 0 1 769.91 1453.60 L 725.81 1453.52 A 0.56 0.55 77.4 0 1 725.31 1453.20 Q 725.16 1452.89 725.17 1452.30 Q 725.58 1225.80 725.58 1223.97 C 725.59 1222.20 727.94 1221.42 728.98 1222.84 Q 746.49 1246.78 836.05 1370.92 A 0.34 0.09 10.7 0 0 836.28 1371.03 Q 836.33 1371.04 836.38 1371.04 Z"/>
    <path d="M 588.88 1368.40 L 588.88 1327.71 A 0.77 0.76 -90.0 0 1 589.64 1326.94 L 694.58 1326.94 A 0.62 0.61 86.3 0 1 695.19 1327.48 C 699.02 1357.73 693.87 1389.65 676.41 1414.50 C 636.68 1471.04 551.56 1470.37 504.46 1424.33 C 479.95 1400.37 467.19 1366.67 469.62 1332.10 C 471.63 1303.52 484.42 1276.75 504.73 1256.43 C 534.21 1226.94 578.10 1215.29 618.21 1227.60 Q 647.57 1236.61 669.35 1258.14 A 0.93 0.92 -50.5 0 1 669.46 1259.32 L 644.77 1295.38 A 0.66 0.65 -50.0 0 1 643.77 1295.47 C 621.69 1273.39 591.85 1261.50 561.84 1273.36 C 541.13 1281.54 525.32 1299.11 518.83 1320.32 C 507.29 1358.05 527.93 1396.49 565.28 1408.37 C 595.33 1417.93 644.84 1410.40 647.32 1369.65 A 0.66 0.66 0.0 0 0 646.66 1368.94 L 589.43 1368.94 A 0.55 0.54 -0.0 0 1 588.88 1368.40 Z"/>
    <path d="M 1094.19 1325.94 A 0.36 0.36 0.0 0 0 1094.33 1326.60 C 1123.57 1330.47 1142.04 1359.34 1140.91 1387.46 C 1139.63 1419.54 1118.95 1445.46 1087.13 1452.07 Q 1081.21 1453.30 1069.98 1453.47 Q 1054.78 1453.70 985.85 1453.45 A 0.58 0.58 0.0 0 1 985.27 1452.87 L 985.27 1228.81 A 0.44 0.44 0.0 0 1 985.71 1228.37 Q 1009.90 1228.20 1047.50 1228.36 Q 1072.98 1228.47 1090.63 1242.82 Q 1101.52 1251.67 1107.17 1263.16 C 1116.97 1283.08 1115.18 1313.12 1094.19 1325.94 Z M 1030.50 1273.19 L 1030.58 1314.99 A 0.82 0.82 0.0 0 0 1031.40 1315.81 L 1048.57 1315.78 A 22.03 21.61 -0.1 0 0 1070.56 1294.14 L 1070.56 1293.92 A 22.03 21.61 -0.1 0 0 1048.49 1272.34 L 1031.32 1272.37 A 0.82 0.82 0.0 0 0 1030.50 1273.19 Z M 1030.31 1356.48 L 1030.77 1408.74 A 0.65 0.65 0.0 0 0 1031.42 1409.38 L 1067.83 1409.06 A 29.14 26.28 -0.5 0 0 1096.74 1382.53 L 1096.73 1381.53 A 29.14 26.28 -0.5 0 0 1067.37 1355.51 L 1030.96 1355.82 A 0.65 0.65 0.0 0 0 1030.31 1356.48 Z"/>
    <path d="M 1252.08 1318.42 Q 1274.83 1318.42 1291.66 1318.37 Q 1292.23 1318.36 1292.60 1318.22 A 0.53 0.52 79.4 0 0 1292.93 1317.73 L 1292.93 1228.75 A 0.55 0.55 0.0 0 1 1293.48 1228.20 L 1337.14 1228.20 A 1.08 1.08 0.0 0 1 1338.22 1229.27 Q 1338.23 1229.79 1338.23 1340.89 Q 1338.23 1451.99 1338.22 1452.52 A 1.08 1.08 0.0 0 1 1337.14 1453.58 L 1293.48 1453.58 A 0.55 0.55 0.0 0 1 1292.93 1453.03 L 1292.93 1364.05 A 0.53 0.52 -79.4 0 0 1292.60 1363.56 Q 1292.23 1363.42 1291.66 1363.42 Q 1274.83 1363.36 1252.08 1363.36 Q 1229.34 1363.36 1212.51 1363.42 Q 1211.94 1363.42 1211.57 1363.56 A 0.53 0.52 79.4 0 0 1211.24 1364.05 L 1211.24 1453.03 A 0.55 0.55 0.0 0 1 1210.69 1453.58 L 1167.03 1453.58 A 1.08 1.08 0.0 0 1 1165.95 1452.52 Q 1165.94 1452.00 1165.93 1340.89 Q 1165.93 1229.79 1165.94 1229.27 A 1.08 1.08 0.0 0 1 1167.03 1228.21 L 1210.69 1228.21 A 0.55 0.55 0.0 0 1 1211.24 1228.76 L 1211.24 1317.74 A 0.53 0.52 -79.4 0 0 1211.57 1318.23 Q 1211.94 1318.37 1212.51 1318.37 Q 1229.34 1318.42 1252.08 1318.42 Z"/>
  </g>
</svg>
